static/brands/apsensing.svg

<svg xmlns="http://www.w3.org/2000/svg" viewBox="0 0 28.35 3.4"><path d="M4.59.06H3.52v3.2h.66v-.92h.41c.88 0 1.3-.32 1.3-1.14S5.47.06 4.59.06m.04 1.64h-.45v-1h.45c.39 0 .6.11.6.5s-.2.5-.6.5M.95.06 0 3.26h.75L1.44.7h.21l.69 2.56h.76L2.16.06Zm26.79 2.17c-.36 0-.59.26-.59.58s.23.59.59.59.61-.27.61-.59-.25-.58-.61-.58" style="stroke-width:0;fill:#727272;fill-opacity:1"/><path d="m8.26 1.44-.92-.25c-.21-.06-.28-.16-.28-.28 0-.22.17-.31.48-.31.43 0 .64.17.64.55h.68C8.86.46 8.42 0 7.53 0c-.74 0-1.15.32-1.15.93 0 .4.17.72.66.86l.94.27c.21.06.3.17.3.31 0 .24-.17.34-.57.34-.57 0-.77-.2-.77-.69h-.68c0 .82.44 1.29 1.43 1.29.9 0 1.27-.38 1.27-.98 0-.46-.23-.76-.7-.9zm1.22 1.82h2.24v-.63h-1.58v-.67h1.38v-.61h-1.38V.7h1.58V.06H9.48Zm8.23-1.82-.92-.25c-.21-.06-.28-.16-.28-.28 0-.22.17-.31.48-.31.43 0 .64.17.64.55h.68c0-.69-.44-1.15-1.33-1.15-.74 0-1.15.32-1.15.93 0 .4.17.72.66.86l.94.27c.21.06.3.17.3.31 0 .24-.17.34-.57.34-.57 0-.77-.2-.77-.69h-.68c0 .82.44 1.29 1.43 1.29.9 0 1.27-.38 1.27-.98 0-.46-.23-.76-.7-.9zm-3.18 1.19h-.13L13.55.06H12.3v3.2h.67V.7h.13l.84 2.56h1.25V.06h-.66zm8 0h-.13L21.55.06H20.3v3.2h.67V.7h.13l.84 2.56h1.25V.06h-.66ZM18.98.06h.66v3.2h-.66zm6.24 1.41v.56h.8c0 .4-.3.65-.78.65-.6 0-.86-.41-.86-1.01 0-.65.31-1.05.83-1.05.36 0 .62.2.7.52h.68c-.12-.69-.68-1.15-1.41-1.15-.9 0-1.48.65-1.48 1.69 0 .97.51 1.63 1.37 1.63.59 0 .85-.32.96-.57v.52h.6V1.47h-1.42z" style="fill:#1a1a18;stroke-width:0"/></svg>

<?xml version="1.0" encoding="UTF-8" standalone="no"?>
<svg
   id="Components"
   viewBox="0 0 28.35 3.4"
   version="1.1"
   sodipodi:docname="apsensing.svg"
   inkscape:version="1.4 (e7c3feb1, 2024-10-09)"
   xmlns:inkscape="http://www.inkscape.org/namespaces/inkscape"
   xmlns:sodipodi="http://sodipodi.sourceforge.net/DTD/sodipodi-0.dtd"
   xmlns="http://www.w3.org/2000/svg"
   xmlns:svg="http://www.w3.org/2000/svg">
  <sodipodi:namedview
     id="namedview2"
     pagecolor="#ffffff"
     bordercolor="#666666"
     borderopacity="1.0"
     inkscape:showpageshadow="2"
     inkscape:pageopacity="0.0"
     inkscape:pagecheckerboard="0"
     inkscape:deskcolor="#d1d1d1"
     inkscape:zoom="8.6988152"
     inkscape:cx="14.082378"
     inkscape:cy="1.7243728"
     inkscape:window-width="1920"
     inkscape:window-height="1027"
     inkscape:window-x="0"
     inkscape:window-y="25"
     inkscape:window-maximized="0"
     inkscape:current-layer="Components" />
  <defs
     id="defs1">
    <style
       id="style1">.cls-1,.cls-2{fill:#1a1a18;stroke-width:0}.cls-2{fill:#e40033}</style>
  </defs>
  <path
     d="M 4.59,0.06 H 3.52 v 3.2 H 4.18 V 2.34 h 0.41 c 0.88,0 1.3,-0.32 1.3,-1.14 0,-0.82 -0.42,-1.14 -1.3,-1.14 z M 4.63,1.7 H 4.18 v -1 h 0.45 c 0.39,0 0.6,0.11 0.6,0.5 0,0.39 -0.2,0.5 -0.6,0.5 z M 0.95,0.06 0,3.26 H 0.75 L 1.44,0.7 H 1.65 L 2.34,3.26 H 3.1 L 2.16,0.06 Z m 26.79,2.17 c -0.36,0 -0.59,0.26 -0.59,0.58 0,0.32 0.23,0.59 0.59,0.59 0.36,0 0.61,-0.27 0.61,-0.59 0,-0.32 -0.25,-0.58 -0.61,-0.58 z"
     class="cls-2"
     id="path1"
     style="fill:#727272;fill-opacity:1" />
  <path
     d="M 8.26,1.44 7.34,1.19 C 7.13,1.13 7.06,1.03 7.06,0.91 7.06,0.69 7.23,0.6 7.54,0.6 7.97,0.6 8.18,0.77 8.18,1.15 H 8.86 C 8.86,0.46 8.42,0 7.53,0 6.79,0 6.38,0.32 6.38,0.93 c 0,0.4 0.17,0.72 0.66,0.86 l 0.94,0.27 c 0.21,0.06 0.3,0.17 0.3,0.31 0,0.24 -0.17,0.34 -0.57,0.34 -0.57,0 -0.77,-0.2 -0.77,-0.69 H 6.26 c 0,0.82 0.44,1.29 1.43,1.29 0.9,0 1.27,-0.38 1.27,-0.98 0,-0.46 -0.23,-0.76 -0.7,-0.9 z m 1.22,1.82 h 2.24 V 2.63 H 10.14 V 1.96 h 1.38 V 1.35 H 10.14 V 0.7 h 1.58 V 0.06 H 9.48 Z M 17.71,1.44 16.79,1.19 C 16.58,1.13 16.51,1.03 16.51,0.91 c 0,-0.22 0.17,-0.31 0.48,-0.31 0.43,0 0.64,0.17 0.64,0.55 h 0.68 C 18.31,0.46 17.87,0 16.98,0 c -0.74,0 -1.15,0.32 -1.15,0.93 0,0.4 0.17,0.72 0.66,0.86 l 0.94,0.27 c 0.21,0.06 0.3,0.17 0.3,0.31 0,0.24 -0.17,0.34 -0.57,0.34 -0.57,0 -0.77,-0.2 -0.77,-0.69 h -0.68 c 0,0.82 0.44,1.29 1.43,1.29 0.9,0 1.27,-0.38 1.27,-0.98 0,-0.46 -0.23,-0.76 -0.7,-0.9 z M 14.53,2.63 H 14.4 L 13.55,0.06 H 12.3 v 3.2 h 0.67 V 0.7 h 0.13 l 0.84,2.56 h 1.25 v -3.2 h -0.66 z m 8,0 H 22.4 L 21.55,0.06 H 20.3 v 3.2 h 0.67 V 0.7 h 0.13 l 0.84,2.56 h 1.25 V 0.06 H 22.53 Z M 18.98,0.06 h 0.66 v 3.2 h -0.66 z m 6.24,1.41 v 0.56 h 0.8 c 0,0.4 -0.3,0.65 -0.78,0.65 -0.6,0 -0.86,-0.41 -0.86,-1.01 0,-0.65 0.31,-1.05 0.83,-1.05 0.36,0 0.62,0.2 0.7,0.52 h 0.68 c -0.12,-0.69 -0.68,-1.15 -1.41,-1.15 -0.9,0 -1.48,0.65 -1.48,1.69 0,0.97 0.51,1.63 1.37,1.63 0.59,0 0.85,-0.32 0.96,-0.57 v 0.52 h 0.6 V 1.47 h -1.42 z"
     class="cls-1"
     id="path2" />
</svg>
